favicons/xstate/public/icon.svg

<?xml version="1.0" encoding="UTF-8"?>
<svg width="400px" height="400px" viewBox="0 0 400 400" version="1.1" xmlns="http://www.w3.org/2000/svg" xmlns:xlink="http://www.w3.org/1999/xlink">
    <title>icon</title>
    <g id="Favicons" stroke="none" stroke-width="1" fill="none" fill-rule="evenodd">
        <g id="XState-Icon">
            <rect fill="#FFFFFF" x="0" y="0" width="400" height="400"></rect>
            <g id="logomark-white">
                <rect id="Rectangle" fill="#000000" x="0" y="0" width="400" height="400"></rect>
                <path d="M89.5418378,82.0002378 L136.603021,82.3828561 C141.174599,82.4194178 145.477413,84.5495805 148.279597,88.1634941 L316.416778,304.949486 C320.227428,309.85803 316.726867,317.000238 310.52164,317.000238 L261.251934,317.000238 C256.597152,317.000238 252.207669,314.828621 249.382414,311.129977 L202.490056,246.912156 L150.591483,311.329904 C147.758222,314.912017 143.442877,317.000238 138.877008,317.000238 L89.4798199,317.000238 C83.2401389,317.000238 79.7533597,309.792537 83.6225821,304.894334 L165.951228,200.560194 L83.550228,94.0096254 C79.7809231,89.0700581 83.3331656,81.9519796 89.5452832,82.0036848 L89.5418378,82.0002378 Z M310.432909,82.0002378 C316.725177,81.9522149 320.272357,89.1882283 316.369077,94.1076143 L242.652729,187.000238 C237.394191,182.873745 196.587791,148.803464 235.955958,103.184519 C235.955958,103.184519 238.898842,99.7519233 241.999076,96.1264111 L242.734913,95.2657241 C245.433721,92.1083355 248.085347,88.9983439 248.86548,88.0574935 C252.758389,83.3587387 255.963298,82.4210562 260.50272,82.3865826 L310.432909,82.0002378 Z" id="x" fill="#FFFFFF"></path>
            </g>
        </g>
    </g>
</svg>

<?xml version="1.0" encoding="UTF-8"?><svg width="400" height="400" viewBox="0 0 400 400" xmlns="http://www.w3.org/2000/svg"><g fill="none" fill-rule="evenodd"><path fill="#FFF" d="M0 0h400v400H0z"/><path fill="#000" d="M0 0h400v400H0z"/><path d="m89.542 82 47.061.383a14.927 14.927 0 0 1 11.677 5.78L316.417 304.95c3.81 4.909.31 12.051-5.895 12.051h-49.27a14.938 14.938 0 0 1-11.87-5.87l-46.892-64.218-51.899 64.418a14.935 14.935 0 0 1-11.714 5.67H89.48c-6.24 0-9.727-7.207-5.857-12.106L165.95 200.56l-82.4-106.55c-3.77-4.94-.218-12.058 5.994-12.006L89.542 82Zm220.89 0c6.293-.048 9.84 7.188 5.937 12.108L242.653 187c-5.259-4.126-46.065-38.197-6.697-83.815 0 0 2.943-3.433 6.043-7.059l.736-.86c2.699-3.158 5.35-6.268 6.13-7.209 3.893-4.698 7.098-5.636 11.638-5.67l49.93-.387Z" fill="#FFF"/></g></svg>
